resources/haticons/SVG/no_backpack.svg

<!-- Generated by IcoMoon.io -->
<svg version="1.1" xmlns="http://www.w3.org/2000/svg" width="24" height="24" viewBox="0 0 24 24">
<title>no_backpack</title>
<path d="M21.188 21.188l-18.375-18.375-1.406 1.406 2.766 2.766q-0.094 0.234-0.141 0.492t-0.047 0.539v12q0 0.797 0.586 1.383t1.43 0.586h12q0.469 0 0.938-0.234l0.844 0.844zM6 14.016v-2.016h3.188l1.969 2.016h-5.156zM14.813 12l-7.828-7.828v-2.156h3v1.969h4.031v-1.969h3v2.109q1.266 0.375 2.133 1.43t0.867 2.461v9.141l-2.016-1.969v-3.188h-3.188z"></path>
</svg>

<svg xmlns="http://www.w3.org/2000/svg" width="24" height="24"><path d="M21.188 21.188L2.813 2.813 1.407 4.219l2.766 2.766q-.094.234-.141.492t-.047.539v12q0 .797.586 1.383t1.43.586h12q.469 0 .938-.234l.844.844zM6 14.016V12h3.188l1.969 2.016H6.001zM14.813 12L6.985 4.172V2.016h3v1.969h4.031V2.016h3v2.109q1.266.375 2.133 1.43t.867 2.461v9.141L18 15.188V12h-3.188z"/></svg>
